X:1
T:Quand Theseus
T:Phyton le mervilleus serpent
T: Guillaume de Machaut
T:Ballade 38
C:Guillaume de Machaut
%%score 1 2 3
L:1/8
Q:1/4=130
M:3/4
K:C
V:1 alto nm="Viola"
V:2 tenor nm="Contratenor"
V:3 tenor nm="Tenor"
V:1
"^T" F,2 F,2 z F, | G,2 A,B, A,B, | C6 | E D2 C2 B, | C2 z E DE | D C2 B, A,B, | G,6- | G,2 z4 | %8
w: Phy- ton, le|mer- vil- * * *|leus|ser- * * *|||pent||
w: a- voit la|lon- gueur * * *|d'un|er- * * *|||pent,||
 z F F2 E2 | D2 E D2 C | E4 DE | G F2 E2 D | C3 E2 D | z C2 B, A,B, | C6 | E D2 C2 B, | C3 G,2 A, | %17
w: que Phe- bus|de sa * *|fle- sche *||||oc-|||
w: si com O-|vi- des * *|le * *||||de-|||
 z C _B,A, B,G, | F,6 | z F E D2"^?" ^C | D3 E2 D |1 z C B,A, B,G, || A,6 :|2 z C2 B, A,B, || C6 |: %25
w: |||||cit,|||
w: |||||||scrit.|
 D6 | C2 B,4 | C6 | DE GF ED | C2 B,2 ^C2 | D4 z2 | z B, C2 D2 | E,2 F,4 | %33
w: Mais|on- ques|hons|ser- * * * * *|pent ne *|vit|si fel, si|cru- eus|
w: com|le ser-|pent|qui * * * * *|m'e- scon- *|dit,|quant a ma|da- me|
 z C !courtesy!_B,A, B,G, | F,2 z2 DE | G F2 E2 D | C3 E2 D | z C2 B, A,B, | C6 | E D2 C2 B, | %40
w: |ne * *||||si||
w: |mer- * *||||ci||
 C3 G,2 A, | z C _B,A, B,G, | F,6 | z F E D2"^?" ^C | D3 E2 D |1 z C D C2 _B, || D6 :|2 %47
w: ||||||fier|
w: |||||||
 z C2 B, A,B, || C6 |] %49
w: ||
w: |quier.|
V:2
 z6 | C,2 ^F,4 | G,6 | C, G,2 F, E,D, | C,2 G,2 F,2 | E,2 z C2 D | =B,6 | B,4 D2 | C4 B,2 | %9
 A, F,2 G,2 A, | B,4 A,B, | C2 G,4 | F, A,2 G, C,2 | G,2 ^F,4 | G,6 | C,4 E,2 | F, A,2 C B,2 | %17
 C2 G,4 | A,6 | C2 G,4 | G, A,2 G, C,2 |1 C E2 D2 ^C || D6 :|2 G,2 ^F,4 || G,6 |: =G,6 | %26
 C,2 G,F, E,D, | C,4 F,G, | A, =B,2 C B,2 | A,2 B, A,2 ^G, | A,6 | G,2 z2 A,2 | B,2 DC B,A, | %33
 G,2 D,4 | z2 =B,4 | C2 G,4 | F, A,2 G, C,2 | G,2 ^F,4 | G,6 | C,4 E,2 | F, A,2 C B,2 | C2 G,4 | %42
 A,6 | C2 G,4 | G, A,2 G, C,2 |1 C,2 G, A,2 _B, || A,6 :|2 G,2 ^F,4 || G,6 |] %49
V:3
 DC B,C A,2 | G,2 D,4 | C,6 | z B, C2 D2 | z C B,2 A,2 | G,2 F,4 | E,6- | E,6 | F,4 G,2 | %9
 A,2 A, G,2 F, | E,6 | C,6 | z F, E,2 G,2 | C,2 D,4 | C,6 | G,6 | z F, E,2 D,2 | C,2 D C2 B, | %18
 DC B,C A,2 | G,F, G, F,2 E, | z D, C,2 G,2 |1 A,2 G,4 || D,6 :|2 C,2 D,4 || C,6 |: =B,6 | C2 D4 | %27
 CB, A,C A,2 | z G, C,2 G,2 | A, G,2 F,2 E, | D,6 | G, F,2 E,2 D, | G,2 D,4 | C,2 D C2 B, | %34
 C2 G,4 | C,6 | z F, E,2 G,2 | C,2 D,4 | C,6 | G,6 | z F, E,2 D,2 | C,2 D C2 B, | DC B,C A,2 | %43
 G,F, G, F,2 E, | z D, C,2 G,2 |1 A,2 G,4 || D,6 :|2 C,2 D,4 || C,6 |] %49

